X: 1
T:David H.B. Anderson
M:C|
L:1/8
Q:80
C:Michael Grey
S:March
K:HP
|: e|
{g}A{GdGeAfA}e{gAGAG}A{g}B/4d3/4|
{gef}e3/4A/4{g}e/4g3/4{ag}a3/4g/4{a}e3/4d/4|
{g}B/4d3/4{g}B/4{d}A3/4{g}G/4{d}G3/4{g}B/4{d}A3/4|  !
{g}B/4d3/4{g}G3/4{d}B/4{a}g3/4d/4{g}B/4{d}G3/4|
{g}A{GdGeAfA}e{gAGAG}A{g}B/4d3/4|
{gef}e3/4A/4{g}e/4g3/4{ag}a3/4g/4{a}e3/4d/4|  !
{g}B/4d3/4{g}e/4g3/4{ag}a3/4g/4{a}e3/4d/4|
{gBd}B3/4A/4{g}B/4{d}G3/4{g}A:| |:
{g}B/4d3/4|  !
{g}e{GdGe}A3/4{d}B/4{gef}e3/4A/4{g}e/4g3/4|
{a}e{GdGeAfA}e{ag}a3/4g/4{a}e3/4d/4|
{g}B/4d3/4{g}e/4g3/4{a}G/4{d}G3/4g/4e3/4|  !
{g}B/4d3/4{g}G3/4{d}B/4{a}g3/4d/4{g}B/4{d}G3/4|1
{g}e{GdGe}A3/4{d}B/4{gef}e3/4A/4{g}e/4g3/4|
{a}e{GdGeAfA}e{ag}a3/4g/4{a}e3/4d/4|  !
{g}B/4d3/4{g}e/4g3/4{ag}a3/4g/4{a}e3/4d/4|
{gBd}B3/4A/4{g}B/4{d}G3/4{g}A:|
